X: 72
T:Lea Riggs
% Nottingham Music Database
S:Barrie Shay, via EF
M:4/4
L:1/4
K:G
B/2A/2|"G"G/2B/2D "D7"DE/2F/2|"G"G3/2A/2 GB|"Am"A3/2B/2 c/2B/2A/2G/2|\
"Am"cE "D7"EB/2A/2|
"G"G/2B/2D "D7"DE/2F/2|"G"G3/2A/2 GB/2d/2|"C"e/2d/2e/2f/2 g/2e/2d/2c/2|"G"BG G\
:|
d|"C"e/2d/2e/2f/2 g3/2B/2|"C"c/2B/2c/2d/2 e3/2G/2|\
"Am"A/2G/2A/2B/2 c/2B/2A/2G/2|"Am"cE "D7"EB/2A/2|
"G"G/2B/2D "D7"DE/2F/2|"G"G3/2A/2 GB/2d/2|"C"e/2d/2e/2f/2 g/2e/2d/2c/2|"G"BG G\
:|<end>
<start>
